img/logo.svg

<svg width="160" height="66" viewBox="0 0 160 66" fill="none" xmlns="http://www.w3.org/2000/svg">
<path fill-rule="evenodd" clip-rule="evenodd" d="M48.031 24.783C51.682 28.757 59.647 25.158 57.062 19.861C55.336 16.305 52.75 17.13 50.904 18.041C47.208 19.82 46.509 23.088 48.031 24.783ZM42.105 22.002C44.481 26.868 37.168 30.173 33.813 26.523C32.415 24.968 33.058 21.963 36.449 20.33C38.146 19.494 40.522 18.734 42.105 22.002ZM154.221 50.7474L154.221 50.7474L154.179 50.751V50.807C151.764 68.171 127.991 71.038 127.4 57.406C127.131 51.239 138.993 49.456 150.798 48.318C151.007 42.9112 147.233 44.1234 142.648 45.5959C137.829 47.1437 132.115 48.979 129.19 43.717C124.171 34.692 143.822 25.779 145.918 27.615C152.271 33.1766 149.4 34.2063 144.727 35.8824L144.539 35.95C135.049 39.36 138.748 40.057 140.028 39.676C147.597 37.423 154.394 38.636 154.34 47.993C154.955 47.9419 155.558 47.9024 156.154 47.8634L156.154 47.8634C156.807 47.8207 157.452 47.7784 158.097 47.722C160.403 47.507 160.564 50.157 157.936 50.374C156.715 50.5332 155.442 50.6425 154.221 50.7474ZM150.422 51.13C141.298 52.158 133.409 53.566 134.269 56.485C135.985 62.058 147.846 63.303 150.422 51.13ZM117.79 34.23C116.975 39.88 116.996 45.881 117.678 45.918C118.012 45.937 119.982 45.572 120.617 44.411C121.226 43.2933 121.794 41.7541 122.388 40.1407L122.388 40.1406L122.388 40.1405C123.586 36.8907 124.895 33.3397 126.883 32.324C129.725 30.873 118.795 27.279 117.79 34.23ZM28.883 62.666C20.964 68.004 14.664 66.825 16.671 51.818C18.121 40.914 15.723 40.297 13.549 42.376C10.704 45.073 8.921 52.099 8.865 58.788C9.12323 60.3951 9.45828 61.9889 9.869 63.564C10.203 65.194 4.962 66.879 1.895 64.575C0.837 63.79 0 55.865 0 45.131C0 36.307 1.171 30.236 2.23 29.956C10.259 27.765 11.542 31.304 9.813 37.937C9.12537 40.5343 8.65871 43.1851 8.418 45.861C10.091 41.197 12.489 37.376 15.221 35.688C22.637 31.024 28.826 33.215 27.655 42.489C25.648 59.069 25.481 61.316 27.265 60.024C29.496 58.45 30.945 61.262 28.883 62.666ZM41.766 65.142C47.176 65.761 52.807 64.074 54.982 60.59C56.821 57.667 55.316 56.655 53.197 59.015C48.737 64.131 44.109 61.826 42.158 56.655L42.66 56.487C52.082 52.721 57.992 42.493 54.257 36.704C49.126 28.723 33.069 35.86 31.061 47.045C29.221 57.386 34.016 64.299 41.766 65.142ZM41.377 53.172C47.232 49.013 49.183 39.852 47.566 37.267C45.838 34.57 42.492 38.784 41.321 49.013C41.21 50.474 41.21 51.878 41.377 53.172ZM77.125 51.051C79.188 50.376 81.494 48.499 83.091 45.992C83.538 45.289 83.914 44.657 84.43 43.012C84.3675 43.2111 84.3915 43.1204 84.4509 42.8953C84.5588 42.4862 84.7839 41.6335 84.82 41.271C84.82 41.215 84.876 40.932 84.932 40.822C86.157 33.965 81.921 30.086 76.065 33.009C72.776 34.638 68.706 40.822 66.253 47.51C66.866 43.912 67.925 40.484 69.096 37.111C71.103 31.154 67.368 28.119 60.956 29.862C59.896 30.143 57.945 37.955 57.945 46.779C57.945 57.513 58.503 63.695 59.562 64.483C62.628 66.843 68.092 65.101 67.535 63.527C67.3189 62.9291 67.1554 62.3284 66.9926 61.7303L66.977 61.673C66.977 61.504 66.977 61.335 66.922 61.167C65.861 54.196 69.933 44.532 73.278 41.946C74.17 41.215 75.396 41.721 75.564 43.632C72.832 44.981 71.94 47.342 71.94 48.353C71.94 51.107 74.727 51.781 77.125 51.051Z" fill="black"/>
<path fill-rule="evenodd" clip-rule="evenodd" d="M113.207 27.161C112.726 29.6539 112.354 32.1666 112.092 34.692C111.033 44.752 111.48 53.688 112.705 57.678C113.431 59.815 116.162 62.624 118.783 59.701C121.626 56.498 124.75 58.352 120.957 62.117C118.617 64.422 114.268 65.995 109.918 65.545C106.795 65.152 104.9 63.13 103.784 60.04C103.34 60.938 102.837 61.725 102.224 62.342C100.105 64.535 97.5389 65.772 94.2499 65.434C87.6129 64.704 83.7119 57.511 85.5509 47.281C87.5029 36.49 96.87 32.556 102.279 35.424C102.391 34.075 102.502 32.725 102.614 31.32C102.641 31.1795 102.655 31.039 102.669 30.8985C102.683 30.758 102.696 30.6175 102.724 30.477C101.079 30.8387 99.424 31.1575 97.7619 31.433C73.7869 35.423 82.0399 15.864 87.8939 10.75C94.53 5.017 95.2539 8.895 93.1909 10.188C89.5109 12.548 87.8939 26.093 98.4319 26.093C100.161 26.093 101.778 25.981 103.394 25.812C106.685 7.49 116.665 -1.391 124.75 1.532C133.726 4.792 132.779 19.067 113.207 27.161ZM102.279 51.554C102.055 48.012 102.055 44.022 102.112 39.918C102.112 39.6576 102.127 39.3974 102.141 39.1449C102.155 38.9068 102.168 38.6754 102.168 38.457C98.8219 36.939 95.5329 42.11 94.6949 49.249C93.7489 57.622 97.4829 62.062 99.6029 60.04C101.22 58.409 102.056 53.237 102.279 51.554ZM126.365 8.389C124.581 5.747 118.058 8.951 114.267 22.721C123.802 18.167 127.593 10.299 126.365 8.389Z" fill="black"/>
</svg>

<svg width="160" height="66" fill="none" xmlns="http://www.w3.org/2000/svg"><path fill-rule="evenodd" clip-rule="evenodd" d="M48.03 24.78c3.65 3.98 11.62.38 9.03-4.92-1.72-3.55-4.31-2.73-6.16-1.82-3.7 1.78-4.4 5.05-2.87 6.74zM42.1 22c2.38 4.87-4.93 8.17-8.29 4.52-1.4-1.55-.75-4.56 2.64-6.19 1.7-.84 4.07-1.6 5.65 1.67zm112.12 28.75h-.04v.06c-2.42 17.36-26.19 20.23-26.78 6.6-.27-6.17 11.6-7.95 23.4-9.1.2-5.4-3.57-4.19-8.15-2.71-4.82 1.54-10.53 3.38-13.46-1.88-5.02-9.03 14.63-17.94 16.73-16.1 6.35 5.56 3.48 6.59-1.2 8.26l-.18.07c-9.5 3.41-5.8 4.1-4.51 3.73 7.57-2.26 14.36-1.04 14.31 8.31l1.81-.13c.66-.04 1.3-.08 1.95-.14 2.3-.21 2.46 2.44-.16 2.65-1.22.16-2.5.27-3.72.38zm-3.8.38c-9.12 1.03-17.01 2.44-16.15 5.35 1.72 5.58 13.58 6.82 16.15-5.35zm-32.63-16.9c-.82 5.65-.8 11.65-.11 11.69.33.02 2.3-.35 2.94-1.5.6-1.13 1.17-2.67 1.77-4.28 1.2-3.25 2.5-6.8 4.5-7.82 2.83-1.45-8.1-5.04-9.1 1.91zm-88.9 28.44C20.95 68 14.65 66.83 16.66 51.82c1.45-10.9-.95-11.52-3.12-9.44-2.85 2.7-4.63 9.72-4.69 16.4.26 1.62.6 3.2 1 4.78.34 1.63-4.9 3.32-7.96 1.02C.83 63.79 0 55.87 0 45.13c0-8.82 1.17-14.9 2.23-15.17 8.03-2.2 9.31 1.34 7.58 7.98a47.64 47.64 0 00-1.4 7.92c1.68-4.66 4.08-8.48 6.81-10.17 7.42-4.67 13.6-2.47 12.44 6.8-2.01 16.58-2.18 18.83-.4 17.53 2.24-1.57 3.68 1.24 1.62 2.65zm12.88 2.47c5.4.62 11.04-1.07 13.21-4.55 1.84-2.92.34-3.94-1.78-1.58-4.46 5.12-9.1 2.82-11.04-2.35l.5-.17c9.42-3.77 15.33-14 11.6-19.79-5.13-7.98-21.2-.84-23.2 10.34-1.84 10.35 2.96 17.26 10.7 18.1zm-.4-11.97c5.86-4.16 7.81-13.32 6.2-15.9-1.73-2.7-5.08 1.51-6.25 11.74-.11 1.46-.11 2.87.06 4.16zm35.76-2.12c2.06-.67 4.36-2.55 5.96-5.06.45-.7.82-1.33 1.34-2.98-.06.2-.04.11.02-.11.1-.41.33-1.27.37-1.63 0-.05.06-.34.11-.45 1.23-6.85-3-10.73-8.87-7.81-3.28 1.63-7.35 7.81-9.8 14.5.6-3.6 1.66-7.03 2.84-10.4 2-5.96-1.73-9-8.14-7.25-1.06.28-3.02 8.1-3.02 16.92 0 10.73.56 16.91 1.62 17.7 3.07 2.36 8.53.62 7.97-.95-.21-.6-.37-1.2-.54-1.8l-.01-.06c0-.17 0-.34-.06-.5-1.06-6.97 3.01-16.64 6.36-19.22.89-.73 2.12-.23 2.28 1.68-2.73 1.35-3.62 3.71-3.62 4.72 0 2.76 2.79 3.43 5.19 2.7z" fill="#000"/><path fill-rule="evenodd" clip-rule="evenodd" d="M113.2 27.16c-.47 2.5-.85 5-1.1 7.53-1.07 10.06-.62 19 .6 22.99.73 2.13 3.46 4.94 6.08 2.02 2.85-3.2 5.97-1.35 2.18 2.42-2.34 2.3-6.7 3.88-11.04 3.43-3.13-.4-5.02-2.42-6.14-5.51a8.7 8.7 0 01-1.56 2.3c-2.11 2.2-4.68 3.43-7.97 3.1-6.64-.74-10.54-7.93-8.7-18.16 1.95-10.79 11.32-14.72 16.73-11.86a1240.37 1240.37 0 00.39-4.52l.05-.42c-1.64.36-3.3.68-4.96.95-23.97 4-15.72-15.57-9.87-20.68 6.64-5.73 7.36-1.86 5.3-.56-3.68 2.36-5.3 15.9 5.24 15.9 1.73 0 3.35-.1 4.96-.28 3.3-18.32 13.28-27.2 21.36-24.28 8.98 3.26 8.03 17.54-11.54 25.63zm-10.92 24.4c-.22-3.55-.22-7.54-.17-11.64l.03-.78.03-.68c-3.35-1.52-6.64 3.65-7.48 10.79-.94 8.37 2.8 12.81 4.91 10.79 1.62-1.63 2.46-6.8 2.68-8.49zm24.08-43.17c-1.78-2.64-8.3.56-12.1 14.33 9.54-4.55 13.33-12.42 12.1-14.33z" fill="#000"/></svg>
